img/catalogue/option-igra.svg

<svg width="16" height="16" viewBox="0 0 16 16" fill="none" xmlns="http://www.w3.org/2000/svg">
<path d="M14.5276 13.0542H10.491C12.5819 11.8431 13.9917 9.58113 13.9917 6.99578C13.9917 3.13833 10.8533 0 6.99585 0C3.13831 0 0 3.13833 0 6.99578C0 10.8534 3.13831 13.9917 6.99585 13.9917H14.5276C14.8225 13.9917 15.0625 14.2317 15.0625 14.5276C15.0625 14.8231 14.8234 15.0625 14.5276 15.0625H8C7.74109 15.0625 7.53125 15.2723 7.53125 15.5312C7.53125 15.7902 7.74109 16 8 16H14.5276C15.3326 16 16 15.3502 16 14.5266C16 13.7147 15.3395 13.0542 14.5276 13.0542ZM6.99585 13.0542C6.73364 13.0542 6.47522 13.0373 6.22168 13.0049L11.344 10.0476L11.9904 10.4207C10.8972 12.01 9.06628 13.0542 6.99585 13.0542ZM3.59802 12.0091L9.16992 8.7923L10.4065 9.5063L4.9054 12.6823C4.44031 12.5108 4.00183 12.2837 3.59802 12.0091ZM3.11646 2.34633C3.4928 2.03175 3.90772 1.76185 4.35303 1.54506V7.98041L3.11646 8.6944V2.34633ZM5.29053 1.18226C5.6875 1.06556 6.10107 0.988167 6.5271 0.955452V6.72515L5.29053 7.43914V1.18226ZM13.0542 6.99578C13.0542 7.14276 13.0486 7.28839 13.0383 7.4328L7.4646 4.21475V2.78689L12.9657 5.96294C13.0237 6.29875 13.0542 6.64373 13.0542 6.99578ZM7.4646 5.29728L12.8833 8.42572C12.7831 8.83832 12.6407 9.23469 12.4607 9.60969L7.4646 6.72515V5.29728ZM12.5861 4.66129L7.4646 1.70436V0.955452C9.77563 1.13319 11.7277 2.61342 12.5861 4.66129ZM2.17896 3.32608V9.23567L1.53101 9.60969C1.15076 8.81794 0.9375 7.93133 0.9375 6.99578C0.9375 5.61735 1.40063 4.34525 2.17896 3.32608ZM2.00134 10.4207L6.99585 7.53705L8.23242 8.25104L2.81653 11.3779C2.51306 11.0882 2.23975 10.7674 2.00134 10.4207Z" fill="#777777"/>
</svg>

<svg width="16" height="16" fill="none" xmlns="http://www.w3.org/2000/svg"><path d="M14.528 13.054H10.49a7 7 0 003.5-6.058A7.004 7.004 0 006.997 0 7.004 7.004 0 000 6.996a7.004 7.004 0 006.996 6.996h7.532a.536.536 0 010 1.07H8A.469.469 0 108 16h6.528a1.472 1.472 0 100-2.946zm-7.532 0c-.262 0-.52-.017-.774-.05l5.122-2.956.646.373a6.056 6.056 0 01-4.994 2.633zM3.598 12.01L9.17 8.792l1.236.714-5.5 3.176a6.043 6.043 0 01-1.308-.673zm-.482-9.663a6.075 6.075 0 011.237-.8V7.98l-1.237.714V2.346zm2.175-1.164c.396-.116.81-.194 1.236-.227v5.77l-1.236.714V1.182zm7.763 5.814c0 .147-.005.292-.016.437L7.465 4.215V2.787l5.5 3.176c.059.336.09.68.09 1.033zm-5.59-1.699l5.42 3.129c-.1.412-.243.809-.423 1.184L7.465 6.725V5.297zm5.122-.636L7.465 1.704V.955a6.072 6.072 0 015.121 3.706zM2.18 3.326v5.91l-.648.374a6.022 6.022 0 01-.593-2.614 6.03 6.03 0 011.241-3.67zm-.178 7.095l4.995-2.884 1.236.714-5.415 3.127A6.109 6.109 0 012 10.42z" fill="#777"/></svg>
